X: 141
T: The Trip To Herve's
C: Micheal McGoldrick
R: reel
M: C|
L: 1/8
K: Dmaj
|:FAAF ABde|faaf dafd|B2dB AFDE|FEED E2DE|
FAAF ABde|f2af dafd|B3d AFEG|1 F3E DBAG:|2 F3E DEFG||
|:AB3 d2BA|EFFE FGFE|DEFG A2DE|FGA2 FGAF|
AB3 d2BA|EFFE FGFE|DEFG ABAG|FGEG FDEF|
GABc d2BA|EFFE FGFE|DEFG A2DE|FGA2 FGA2|
B2FA2EF2|DEED EFGA|B2FA2EF2|DEED EFGA|]

